X:1
T:James Gibb editions
T:Fuggi, fuggi - Saracini
T:#
%%score 1 2
L:1/8
Q:1/4=80
M:4/4
K:C
V:1 treble nm="Soprano "
V:2 bass nm="BC"
V:1
|:"^Fuggi, fuggi""^Claudio Saracini\n(1586-1630)" z2 Bd G2 AB | c4 c4 | z2 ^ce A2 Bc | d4 d4 | %4
w: Fug- gi, fug- gì mio|co- re,|fug- gi, fug- gi mio|co- re,|
 z2 B2 eeee | c4 c4 |[M:4/4] z4 z2 G2 | BBBB ^G4 | ^G4 z2 B2 | edcB dcBA | TB8 | A8 | z2 A2 G2 F2 | %13
w: non ve- di la man|bel- la,|non|ve- di la man bel-|la che|con- giu- ra- ta con be- gli~~oc- chi~~an-|ch'el-|la.|Per far- ti|
 F3 E F4 | z2 _B2 A2 G2 | G3 ^F G4 | B6 cd | e4 e4 | z2 A2 (_B4- | B2 c2) A4 | z AEE F4 | A6 ^CC | %22
w: pri- gio- nier,|che far- ti|pri- gio- nier|vien ti~~a fe-|ri- re,|ma las\-|* * so,|ec- co~~un so- spir|nun- zio~~in- fe-|
 ^C4 C4 | F4 GADE | F8 | F8 | AG ^F4 GA | (B6 A2 | G4 ABcd | e4) e4 | z edc BBcd | e6 c2 | TB8 | %33
w: li- ce|ch'es- ce del pet- to~~e|di-|ce:|che più gio- va~~il fug-|gì\- *||* re?|e- gli~~è già pre- so,~~e- gli con-|vien mo-|ri-|
 A8 | z dcB AAGF | E6 D2 | TE8 |[M:4/4] D8 | z Bcd eedc | f6 e2 | Td8 | c8 | z dcB A4- | %43
w: re,|é- gli~~è già pre- so,~~e- gli con|vien mo-|ri-|re,|e- gli~~è già pre- so,~~e- gli con-|vien mo-|ri-|re,|e- gli con- vien|
 A2 G2 A4- | A8 | G8 :| %46
w: * mo- ri\-||re.|
V:2
|: G,,8 | E,8 | A,,8 | D,8 | E,8 | A,,8 |[M:4/4] D,D,D,D, B,,4- | B,,4 E,4 | E,8- | E,8 | E,8 | %11
 A,,8 | F,,4 G,,2 A,,2 | C,4 F,,4 | G,4 ^F,2 G,2 | C,2 D,2 G,,4 | G,6 E,D, | ^C,4 C,4 | %18
 ^C,4 _B,,4 | A,,8 | A,,4 F,,4- | F,,4 A,,4- | A,,8 | D,4 C,A,,_B,,G,, | F,,8 | F,,8 | D,6 C,2 | %27
 B,,4 B,,4 | B,,6 A,,2 | ^G,,4 G,,4 | E,8 | E,8- | E,8 | A,,8 | G,,4 D,4 | A,,8- | A,,8 | %37
[M:4/4] D,8 | G,,4 C,4 | D,4 G,4 | G,,8 | C,8 | B,,4 D,4 | D,,8 | D,,8 | G,,8 :| %46

